src/static/logos/aerospike.svg

<?xml version="1.0" encoding="UTF-8" standalone="no"?>
<svg width="256px" height="256px" viewBox="0 0 256 256" version="1.1" xmlns="http://www.w3.org/2000/svg" xmlns:xlink="http://www.w3.org/1999/xlink" preserveAspectRatio="xMidYMid">
	<g>
		<path d="M0,0 L256,0 L256,256 L0,256 L0,0 Z" fill="#B0252A"></path>
		<path d="M156.293175,95.6049968 L83.124386,128.199007 L156.293175,161.009083 L156.293175,95.6049968 L156.293175,95.6049968 Z M64.2607531,135.58389 L47.2120682,128.283159 L64.2607531,120.402464 L208.787932,55.0256697 L208.787932,72.4291565 L170.855973,89.2526787 L170.855973,167.370499 L208.787932,184.369148 L208.787932,200.97433 L64.2607531,135.58389 L64.2607531,135.58389 Z" fill="#FFFFFF"></path>
	</g>
</svg>

<svg width="256" height="256" xmlns="http://www.w3.org/2000/svg" preserveAspectRatio="xMidYMid"><path d="M0 0h256v256H0V0z" fill="#B0252A"/><path d="M156.293 95.605l-73.169 32.594 73.17 32.81V95.605zm-92.032 39.979l-17.049-7.3 17.049-7.882 144.527-65.376v17.403l-37.932 16.824v78.117l37.932 17v16.604L64.26 135.584z" fill="#FFF"/></svg>
